public/avatar/item2/26.svg

<svg xmlns:xlink="http://www.w3.org/1999/xlink" height="99.2" width="82.2" xmlns="http://www.w3.org/2000/svg"><use height="14.7" transform="translate(14.95 66.45)" width="30.95" xlink:href="#a"/><defs><g id="a" fill-rule="evenodd"><path d="M-16.05 20.35q.4-.35.35-.65l3 4.25q4.15 4.5 10.1 5.45-.3 1.05-.15 2.85-10.7-3.15-13.3-11.9" fill="#de8300" transform="translate(16.05 -19.7)"/><path d="M-3.4 31.45q-7.5-2.45-10.8-8.3 4.3 5.4 10.95 6.65L-3.4 31v.45" fill="#ffcf00" transform="translate(16.05 -19.7)"/><path d="m-8.6 27.3 1.4 3.2q-3.05-1.6-5.4-4.1l-.45-2.7q1.9 2.15 4.45 3.6" fill="#ffb300" transform="translate(16.05 -19.7)"/><path d="m-8.3 28.1.65 1.5q-3.1-1.85-5.2-4.35l-.05-.55q1.9 2 4.6 3.4" fill="#ffffe8" transform="translate(16.05 -19.7)"/><path d="M14.9 20.6q-2.6 8.75-13.3 11.9.15-1.85-.1-2.85 5.9-.95 10.05-5.45 2.1-2.2 3-4.25l.35.65" fill="#de8300" transform="translate(16.05 -19.7)"/><path d="m2.25 31.7.05-.45-.2-1.2q6.65-1.25 10.95-6.65-3.3 5.85-10.8 8.3" fill="#ffcf00" transform="translate(16.05 -19.7)"/><path d="M10.45 25.3q1.65-1.45 3-3.45l-.8 3.2q-1.7 2.4-3.8 3.9l1.6-3.65" fill="#a96a00" transform="translate(16.05 -19.7)"/><path d="M12.95 23.45q-1.4 2.4-3.55 4.25l.55-1.25 3-3" fill="#ffb300" transform="translate(16.05 -19.7)"/><path d="m5.85 27.65 2 2.55q-5.3 3.6-8.15 4.2-2.9-.6-8.3-4.2 1.3-2.15 2.05-2.55l6.4 1.45q1.95 0 6-1.45" fill="#de8300" transform="translate(16.05 -19.7)"/><path d="m-3.7 32.55.9.15v.3l-.9-.45m2.45.3v.8L-2.8 33v-.3l1.55.15" fill="#ffcf00" transform="translate(16.05 -19.7)"/><path d="m.3 32.85.05.9-.55.2-1.05-.3v-.8H.3m1.55-.15.05.45-1.55.6v-.9l1.5-.15" fill="#ffb300" transform="translate(16.05 -19.7)"/><path d="M1.9 33.1v-.4l1.4-.25-1.4.65" fill="#ffff83" transform="translate(16.05 -19.7)"/><path d="m-6.95 30.2-.15.45-.95-.6.15-.25.95.4" fill="#ffcf00" transform="translate(16.05 -19.7)"/><path d="m-5.55 30.75-.15.75-1.4-.85.15-.45 1.4.55" fill="#ffff83" transform="translate(16.05 -19.7)"/><path d="m-4.1 31.1-.2 1.15-1.4-.75.15-.75 1.45.35" fill="#ffffe8" transform="translate(16.05 -19.7)"/><path d="m-2.8 32.7-.9-.15-.6-.3.2-1.15 1.45.25-.15 1.35" fill="#ffff83" transform="translate(16.05 -19.7)"/><path d="m-1.2 31.5-.05 1.35-1.55-.15.15-1.35 1.45.15" fill="#ffcf00" transform="translate(16.05 -19.7)"/><path d="M.3 31.5v1.35h-1.55l.05-1.35H.3" fill="#ffb300" transform="translate(16.05 -19.7)"/><path d="m1.75 31.35.1 1.35-1.5.15L.3 31.5l1.45-.15M.3 31.5l.05 1.35H.3V31.5" fill="#ffcf00" transform="translate(16.05 -19.7)"/><path d="m3.2 31.1.2 1.3-.1.05-1.4.25-.15-1.35 1.45-.25" fill="#ffff83" transform="translate(16.05 -19.7)"/><path d="m3.2 31.1 1.45-.35.2.85-1.45.8-.2-1.3" fill="#ffcf00" transform="translate(16.05 -19.7)"/><path d="m4.65 30.75 1.4-.55.15.55-1.35.85-.2-.85" fill="#ffb300" transform="translate(16.05 -19.7)"/><path d="m6.05 30.2 1.1-.5.2.35-1.15.7-.15-.55" fill="#ffcf00" transform="translate(16.05 -19.7)"/><path d="m-6.55 28.95-.4 1.25-.95-.4.8-1.1.55.25" fill="#ffff83" transform="translate(16.05 -19.7)"/><path d="m-5.25 29.45-.3 1.3-1.4-.55.4-1.25 1.3.5" fill="#ffffe8" transform="translate(16.05 -19.7)"/><path d="m-5.55 30.75.35-1.3 1.3.35-.2 1.3-1.45-.35m3.05-.7-.15 1.3-1.45-.25.2-1.3 1.4.25" fill="#ffffe8" transform="translate(16.05 -19.7)"/><path d="m-1.15 30.15-.05 1.35-1.45-.15.15-1.3 1.35.1" fill="#ffff83" transform="translate(16.05 -19.7)"/><path d="M.25 30.15.3 31.5h-1.5l.05-1.35h1.4" fill="#ffcf00" transform="translate(16.05 -19.7)"/><path d="m.3 31.5-.05-1.35 1.35-.1.15 1.3-1.45.15" fill="#ffff83" transform="translate(16.05 -19.7)"/><path d="m2.95 29.8.25 1.3-1.45.25-.15-1.3 1.35-.25" fill="#ffffe8" transform="translate(16.05 -19.7)"/><path d="M3.2 31.1 3 29.8l1.3-.35.35 1.3-1.45.35" fill="#ffff83" transform="translate(16.05 -19.7)"/><path d="m3.2 31.1-.25-1.3H3l.2 1.3m2.45-2.15.4 1.25-1.4.55-.35-1.3 1.35-.5" fill="#ffcf00" transform="translate(16.05 -19.7)"/><path d="m5.65 28.95.7-.3.8 1.05-1.1.5-.4-1.25" fill="#ffb300" transform="translate(16.05 -19.7)"/><path d="m-6.55 28.95-.55-.25.6-.65.2.05-.25.85" fill="#ffcf00" transform="translate(16.05 -19.7)"/><path d="m-5 28.5-.25.95-1.3-.5.25-.85 1.3.4" fill="#ffff83" transform="translate(16.05 -19.7)"/><path d="m-5.2 29.45.2-.95 1.3.35-.2.95-1.3-.35" fill="#ffffe8" transform="translate(16.05 -19.7)"/><path d="m-2.5 30.05-1.4-.25.2-.95 1.3.3-.1.9" fill="#ffff83" transform="translate(16.05 -19.7)"/><path d="m-1.1 29.35-.05.8-1.35-.1.1-.9 1.3.2" fill="#ffcf00" transform="translate(16.05 -19.7)"/><path d="m.2 29.4.05.75h-1.4l.05-.8.95.1.35-.05" fill="#ffb300" transform="translate(16.05 -19.7)"/><path d="m1.6 30.05-1.35.1-.05-.75 1.35-.15.05.8" fill="#ffcf00" transform="translate(16.05 -19.7)"/><path d="m1.6 30.05-.05-.8 1.25-.3.15.85-1.35.25" fill="#ffff83" transform="translate(16.05 -19.7)"/><path d="M4.3 29.45 3 29.8l-.15-.85 1.25-.35.2.85" fill="#ffcf00" transform="translate(16.05 -19.7)"/><path d="m5.65 28.95-1.35.5-.2-.85 1.3-.4.25.75" fill="#ffb300" transform="translate(16.05 -19.7)"/><path d="m6.35 28.65-.7.3-.25-.75.4-.15.55.6" fill="#ffcf00" transform="translate(16.05 -19.7)"/></g></defs></svg>

<?xml version="1.0" encoding="UTF-8" standalone="no"?>
<svg xmlns:xlink="http://www.w3.org/1999/xlink" height="99.2px" width="82.2px" xmlns="http://www.w3.org/2000/svg">
  <g transform="matrix(1.0, 0.0, 0.0, 1.0, 31.0, 46.75)">
    <use height="14.7" transform="matrix(1.0, 0.0, 0.0, 1.0, -16.05, 19.7)" width="30.95" xlink:href="#shape0"/>
  </g>
  <defs>
    <g id="shape0" transform="matrix(1.0, 0.0, 0.0, 1.0, 16.05, -19.7)">
      <path d="M-16.05 20.35 Q-15.65 20.0 -15.7 19.7 L-12.7 23.95 Q-8.55 28.45 -2.6 29.4 -2.9 30.45 -2.75 32.25 -13.45 29.1 -16.05 20.35" fill="#de8300" fill-rule="evenodd" stroke="none"/>
      <path d="M-3.4 31.45 Q-10.9 29.0 -14.2 23.15 -9.9 28.55 -3.25 29.8 L-3.4 31.0 -3.4 31.45" fill="#ffcf00" fill-rule="evenodd" stroke="none"/>
      <path d="M-8.6 27.3 L-7.2 30.5 Q-10.25 28.9 -12.6 26.4 L-13.05 23.7 Q-11.15 25.85 -8.6 27.3" fill="#ffb300" fill-rule="evenodd" stroke="none"/>
      <path d="M-8.3 28.1 L-7.65 29.6 Q-10.75 27.75 -12.85 25.25 L-12.9 24.7 Q-11.0 26.7 -8.3 28.1" fill="#ffffe8" fill-rule="evenodd" stroke="none"/>
      <path d="M14.9 20.6 Q12.3 29.35 1.6 32.5 1.75 30.65 1.5 29.65 7.4 28.7 11.55 24.2 13.65 22.0 14.55 19.95 L14.9 20.6" fill="#de8300" fill-rule="evenodd" stroke="none"/>
      <path d="M2.25 31.7 L2.3 31.25 2.1 30.05 Q8.75 28.8 13.05 23.4 9.75 29.25 2.25 31.7" fill="#ffcf00" fill-rule="evenodd" stroke="none"/>
      <path d="M10.45 25.3 Q12.1 23.85 13.45 21.85 L12.65 25.05 Q10.95 27.45 8.85 28.95 L10.45 25.3" fill="#a96a00" fill-rule="evenodd" stroke="none"/>
      <path d="M12.95 23.45 Q11.55 25.85 9.4 27.7 L9.95 26.45 12.95 23.45" fill="#ffb300" fill-rule="evenodd" stroke="none"/>
      <path d="M5.85 27.65 L7.85 30.2 Q2.55 33.8 -0.3 34.4 -3.2 33.8 -8.6 30.2 -7.3 28.05 -6.55 27.65 L-0.15 29.1 Q1.8 29.1 5.85 27.65" fill="#de8300" fill-rule="evenodd" stroke="none"/>
      <path d="M-3.7 32.55 L-2.8 32.7 -2.8 33.0 -3.7 32.55" fill="#ffcf00" fill-rule="evenodd" stroke="none"/>
      <path d="M-1.25 32.85 L-1.25 33.65 -2.8 33.0 -2.8 32.7 -1.25 32.85" fill="#ffcf00" fill-rule="evenodd" stroke="none"/>
      <path d="M0.3 32.85 L0.35 33.75 -0.2 33.95 -1.25 33.65 -1.25 32.85 0.3 32.85" fill="#ffb300" fill-rule="evenodd" stroke="none"/>
      <path d="M1.85 32.7 L1.9 33.15 0.35 33.75 0.35 32.85 1.85 32.7" fill="#ffb300" fill-rule="evenodd" stroke="none"/>
      <path d="M1.9 33.1 L1.9 32.7 3.3 32.45 1.9 33.1" fill="#ffff83" fill-rule="evenodd" stroke="none"/>
      <path d="M-6.95 30.2 L-7.1 30.65 -8.05 30.05 -7.9 29.8 -6.95 30.2" fill="#ffcf00" fill-rule="evenodd" stroke="none"/>
      <path d="M-5.55 30.75 L-5.7 31.5 -7.1 30.65 -6.95 30.2 -5.55 30.75" fill="#ffff83" fill-rule="evenodd" stroke="none"/>
      <path d="M-4.1 31.1 L-4.3 32.25 -5.7 31.5 -5.55 30.75 -4.1 31.1" fill="#ffffe8" fill-rule="evenodd" stroke="none"/>
      <path d="M-2.8 32.7 L-3.7 32.55 -4.3 32.25 -4.1 31.1 -2.65 31.35 -2.8 32.7" fill="#ffff83" fill-rule="evenodd" stroke="none"/>
      <path d="M-1.2 31.5 L-1.25 32.85 -2.8 32.7 -2.65 31.35 -1.2 31.5" fill="#ffcf00" fill-rule="evenodd" stroke="none"/>
      <path d="M0.3 31.5 L0.3 32.85 -1.25 32.85 -1.2 31.5 0.3 31.5" fill="#ffb300" fill-rule="evenodd" stroke="none"/>
      <path d="M1.75 31.35 L1.85 32.7 0.35 32.85 0.3 31.5 1.75 31.35" fill="#ffcf00" fill-rule="evenodd" stroke="none"/>
      <path d="M0.3 31.5 L0.35 32.85 0.3 32.85 0.3 31.5" fill="#ffcf00" fill-rule="evenodd" stroke="none"/>
      <path d="M3.2 31.1 L3.4 32.4 3.3 32.45 1.9 32.7 1.75 31.35 3.2 31.1" fill="#ffff83" fill-rule="evenodd" stroke="none"/>
      <path d="M3.2 31.1 L4.65 30.75 4.85 31.6 3.4 32.4 3.2 31.1" fill="#ffcf00" fill-rule="evenodd" stroke="none"/>
      <path d="M4.65 30.75 L6.05 30.2 6.2 30.75 4.85 31.6 4.65 30.75" fill="#ffb300" fill-rule="evenodd" stroke="none"/>
      <path d="M6.05 30.2 L7.15 29.7 7.35 30.05 6.2 30.75 6.05 30.2" fill="#ffcf00" fill-rule="evenodd" stroke="none"/>
      <path d="M-6.55 28.95 L-6.95 30.2 -7.9 29.8 -7.1 28.7 -6.55 28.95" fill="#ffff83" fill-rule="evenodd" stroke="none"/>
      <path d="M-5.25 29.45 L-5.55 30.75 -6.95 30.2 -6.55 28.95 -5.25 29.45" fill="#ffffe8" fill-rule="evenodd" stroke="none"/>
      <path d="M-5.55 30.75 L-5.2 29.45 -3.9 29.8 -4.1 31.1 -5.55 30.75" fill="#ffffe8" fill-rule="evenodd" stroke="none"/>
      <path d="M-2.5 30.05 L-2.65 31.35 -4.1 31.1 -3.9 29.8 -2.5 30.05" fill="#ffffe8" fill-rule="evenodd" stroke="none"/>
      <path d="M-1.15 30.15 L-1.2 31.5 -2.65 31.35 -2.5 30.05 -1.15 30.15" fill="#ffff83" fill-rule="evenodd" stroke="none"/>
      <path d="M0.25 30.15 L0.3 31.5 -1.2 31.5 -1.15 30.15 0.25 30.15" fill="#ffcf00" fill-rule="evenodd" stroke="none"/>
      <path d="M0.3 31.5 L0.25 30.15 1.6 30.05 1.75 31.35 0.3 31.5" fill="#ffff83" fill-rule="evenodd" stroke="none"/>
      <path d="M2.95 29.8 L3.2 31.1 1.75 31.35 1.6 30.05 2.95 29.8" fill="#ffffe8" fill-rule="evenodd" stroke="none"/>
      <path d="M3.2 31.1 L3.0 29.8 4.3 29.45 4.65 30.75 3.2 31.1" fill="#ffff83" fill-rule="evenodd" stroke="none"/>
      <path d="M3.2 31.1 L2.95 29.8 3.0 29.8 3.2 31.1" fill="#ffcf00" fill-rule="evenodd" stroke="none"/>
      <path d="M5.65 28.95 L6.05 30.2 4.65 30.75 4.3 29.45 5.65 28.95" fill="#ffcf00" fill-rule="evenodd" stroke="none"/>
      <path d="M5.65 28.95 L6.35 28.65 7.15 29.7 6.05 30.2 5.65 28.95" fill="#ffb300" fill-rule="evenodd" stroke="none"/>
      <path d="M-6.55 28.95 L-7.1 28.7 -6.5 28.05 -6.3 28.1 -6.55 28.95" fill="#ffcf00" fill-rule="evenodd" stroke="none"/>
      <path d="M-5.0 28.5 L-5.25 29.45 -6.55 28.95 -6.3 28.1 -5.0 28.5" fill="#ffff83" fill-rule="evenodd" stroke="none"/>
      <path d="M-5.2 29.45 L-5.0 28.5 -3.7 28.85 -3.9 29.8 -5.2 29.45" fill="#ffffe8" fill-rule="evenodd" stroke="none"/>
      <path d="M-2.5 30.05 L-3.9 29.8 -3.7 28.85 -2.4 29.15 -2.5 30.05" fill="#ffff83" fill-rule="evenodd" stroke="none"/>
      <path d="M-1.1 29.35 L-1.15 30.15 -2.5 30.05 -2.4 29.15 -1.1 29.35" fill="#ffcf00" fill-rule="evenodd" stroke="none"/>
      <path d="M0.2 29.4 L0.25 30.15 -1.15 30.15 -1.1 29.35 -0.15 29.45 0.2 29.4" fill="#ffb300" fill-rule="evenodd" stroke="none"/>
      <path d="M1.6 30.05 L0.25 30.15 0.2 29.4 1.55 29.25 1.6 30.05" fill="#ffcf00" fill-rule="evenodd" stroke="none"/>
      <path d="M1.6 30.05 L1.55 29.25 2.8 28.95 2.95 29.8 1.6 30.05" fill="#ffff83" fill-rule="evenodd" stroke="none"/>
      <path d="M4.3 29.45 L3.0 29.8 2.85 28.95 4.1 28.6 4.3 29.45" fill="#ffcf00" fill-rule="evenodd" stroke="none"/>
      <path d="M5.65 28.95 L4.3 29.45 4.1 28.6 5.4 28.2 5.65 28.95" fill="#ffb300" fill-rule="evenodd" stroke="none"/>
      <path d="M6.35 28.65 L5.65 28.95 5.4 28.2 5.8 28.05 6.35 28.65" fill="#ffcf00" fill-rule="evenodd" stroke="none"/>
    </g>
  </defs>
</svg>
